media/img/slider_button.svg

<svg fill="none" height="83" viewBox="0 0 83 83" width="83" xmlns="http://www.w3.org/2000/svg"><circle cx="41.5" cy="41.5" fill="#fff" r="41.5"/><path d="m42.8874 48.1375 6.25-6.25c.1138-.1189.203-.2591.2625-.4125.125-.3043.125-.6457 0-.95-.0595-.1535-.1487-.2936-.2625-.4125l-6.25-6.25c-.1166-.1166-.2549-.209-.4072-.2721s-.3155-.0955-.4803-.0955c-.3329 0-.6521.1322-.8875.3676s-.3676.5546-.3676.8875.1322.6521.3676.8875l4.125 4.1125h-9.4875c-.3315 0-.6495.1317-.8839.3661s-.3661.5524-.3661.8839.1317.6495.3661.8839.5524.3661.8839.3661h9.4875l-4.125 4.1125c-.1172.1162-.2102.2544-.2736.4068-.0635.1523-.0962.3157-.0962.4807s.0327.3284.0962.4807c.0634.1523.1564.2906.2736.4068.1162.1171.2544.2101.4068.2736.1523.0635.3157.0961.4807.0961s.3284-.0326.4807-.0961.2906-.1565.4068-.2736z" fill="#333"/></svg>

<svg width="83" height="83" viewBox="0 0 83 83" fill="none" xmlns="http://www.w3.org/2000/svg">
<circle cx="41.5" cy="41.5" r="41.5" fill="white"/>
<path d="M42.8874 48.1375L49.1374 41.8875C49.2512 41.7686 49.3404 41.6284 49.3999 41.475C49.5249 41.1707 49.5249 40.8293 49.3999 40.525C49.3404 40.3715 49.2512 40.2314 49.1374 40.1125L42.8874 33.8625C42.7708 33.7459 42.6325 33.6535 42.4802 33.5904C42.3279 33.5273 42.1647 33.4949 41.9999 33.4949C41.667 33.4949 41.3478 33.6271 41.1124 33.8625C40.877 34.0979 40.7448 34.4171 40.7448 34.75C40.7448 35.0829 40.877 35.4021 41.1124 35.6375L45.2374 39.75L35.7499 39.75C35.4184 39.75 35.1004 39.8817 34.866 40.1161C34.6316 40.3505 34.4999 40.6685 34.4999 41C34.4999 41.3315 34.6316 41.6495 34.866 41.8839C35.1004 42.1183 35.4184 42.25 35.7499 42.25L45.2374 42.25L41.1124 46.3625C40.9952 46.4787 40.9022 46.6169 40.8388 46.7693C40.7753 46.9216 40.7426 47.085 40.7426 47.25C40.7426 47.415 40.7753 47.5784 40.8388 47.7307C40.9022 47.883 40.9952 48.0213 41.1124 48.1375C41.2286 48.2546 41.3668 48.3476 41.5192 48.4111C41.6715 48.4746 41.8349 48.5072 41.9999 48.5072C42.1649 48.5072 42.3283 48.4746 42.4806 48.4111C42.6329 48.3476 42.7712 48.2546 42.8874 48.1375Z" fill="#333333"/>
</svg>
